X: 1
T: Peggy Gordon
M: 4/4
L: 1/8
R: hornpipe
K: Cmaj
|:G,CG, | C2 D3 EFE | CDCB, G,4 | E2 FA G4 | E2 CE D4 |
E2 FA G4 | E2 FECD CB, | (G,3G,2) EFA | G2 C3 B,A,B, | (C3C2):|
